packages/icons/svg/Social_Comment_Community_64px.svg

<svg xmlns="http://www.w3.org/2000/svg" viewBox="0 0 64 64"><path d="M57.5 32.5H51V7a2 2 0 00-2-2H7a2 2 0 00-2 2v35a2 2 0 002 2h12v4.57a2 2 0 001.06 1.76 2 2 0 00.94.24 2 2 0 001.11-.34L31.45 44H32v8.5a1.5 1.5 0 001.5 1.5h9.15l5.92 4.65a1.52 1.52 0 00.93.32 1.55 1.55 0 00.66-.15 1.48 1.48 0 00.84-1.35V54h6.5a1.5 1.5 0 001.5-1.5V34a1.5 1.5 0 00-1.5-1.5zM30.55 41L22 46.7V41H8V8h40v33zM57 52h-8v4.44L43.35 52H34v-8h15a2 2 0 002-2v-7.5h6z"/></svg>

<svg xmlns="http://www.w3.org/2000/svg" viewBox="0 0 64 64"><defs></defs><g id="Icon"><path  d="M57.5,32.5H51V7a2,2,0,0,0-2-2H7A2,2,0,0,0,5,7V42a2,2,0,0,0,2,2H19v4.57a2,2,0,0,0,1.06,1.76,2,2,0,0,0,.94.24,2,2,0,0,0,1.11-.34L31.45,44H32v8.5A1.5,1.5,0,0,0,33.5,54h9.15l5.92,4.65a1.52,1.52,0,0,0,.93.32,1.55,1.55,0,0,0,.66-.15A1.48,1.48,0,0,0,51,57.47V54h6.5A1.5,1.5,0,0,0,59,52.5V34A1.5,1.5,0,0,0,57.5,32.5ZM30.55,41,22,46.7V41H8V8H48V41ZM57,52H49v4.44L43.35,52H34V44H49a2,2,0,0,0,2-2V34.5h6Z"/></g></svg>
